Origami/16x16/apps/estmob-sendanywhere.svg

<svg width="16" height="16" version="1" xmlns="http://www.w3.org/2000/svg">
 <rect transform="matrix(0,-1,-1,0,0,0)" x="-16" y="-16" width="16" height="16" rx=".8" ry=".8" style="fill:#ff5a48"/>
 <path d="m3 11v-6.2c0-1.6 1.8-1.8 1.8-1.8h6.8" style="fill:none;stroke-width:2;stroke:#ffffff"/>
 <path d="m11.260921 0.99992295a0.26473913 0.26473913 0 0 0 -0.260921 0.26471305v2.4706515a0.26473913 0.26473913 0 0 0 0.264712 0.2647125h2.470653a0.26473913 0.26473913 0 0 0 0.18716 -0.451873l-2.470653-2.4706513a0.26473913 0.26473913 0 0 0 -0.190951 -0.0775525z" style="fill:#ffffff"/>
 <rect x="5" y="7" width="2" height="2" ry=".667" style="fill:#ffffff"/>
 <path d="m13 4.999897v6.2c0 1.6-1.8 1.8-1.8 1.8h-6.8" style="fill:none;stroke-width:2;stroke:#ffffff"/>
 <path d="m4.739079 14.999974a0.26473913 0.26473913 0 0 0 0.260921 -0.264713v-2.470651a0.26473913 0.26473913 0 0 0 -0.264712 -0.264713h-2.470653a0.26473913 0.26473913 0 0 0 -0.18716 0.451873l2.470653 2.470651a0.26473913 0.26473913 0 0 0 0.190951 0.07755z" style="fill:#ffffff"/>
 <rect x="9" y="7" width="2" height="2" ry=".667" style="fill:#ffffff"/>
</svg>

<svg xmlns="http://www.w3.org/2000/svg" width="16" height="16" version="1">
 <rect style="fill:#ff5a48" width="16" height="16" x="-16" y="-16" rx=".8" ry=".8" transform="matrix(0,-1,-1,0,0,0)"/>
 <path style="fill:none;stroke:#ffffff;stroke-width:2" d="M 3,11 3,4.8 C 3,3.2 4.8,3 4.8,3 l 6.8,0"/>
 <path style="fill:#ffffff" d="M 11.260921,0.99992295 A 0.26473913,0.26473913 0 0 0 11,1.264636 l 0,2.4706515 A 0.26473913,0.26473913 0 0 0 11.264712,4 l 2.470653,0 a 0.26473913,0.26473913 0 0 0 0.18716,-0.451873 L 11.451872,1.0774757 A 0.26473913,0.26473913 0 0 0 11.260921,0.9999232 Z"/>
 <rect style="fill:#ffffff" width="2" height="2" x="5" y="7" ry=".667"/>
 <path style="fill:none;stroke:#ffffff;stroke-width:2" d="m 13,4.999897 0,6.2 c 0,1.6 -1.8,1.8 -1.8,1.8 l -6.8,0"/>
 <path style="fill:#ffffff" d="M 4.739079,14.999974 A 0.26473913,0.26473913 0 0 0 5,14.735261 L 5,12.26461 A 0.26473913,0.26473913 0 0 0 4.735288,11.999897 l -2.470653,0 a 0.26473913,0.26473913 0 0 0 -0.18716,0.451873 l 2.470653,2.470651 a 0.26473913,0.26473913 0 0 0 0.190951,0.07755 z"/>
 <rect style="fill:#ffffff" width="2" height="2" x="9" y="7" ry=".667"/>
</svg>
